X: 20910
T: Joshua's Dream
R: waltz
M: 3/4
K: Amajor
E cB|A2 CE Ac|B2 EG Bd|c2 AB ce|f2 g2 a2|
e2 AB ce|FG e3 G|F2 A2 d2|B3 E cB|
A2 CE Ac|B2 EG Bd|c2 AB ce|f2 g2 a2|
e2 a3 e|fe dc BA|B2 G2 e2|A3 E cB|
A2 CE Ac|B2 EG Bd|c2 AB ce|f2 g2 a2|
e2 AB ce|FG e3 G|F2 A2 d2|BA GF ED|
E2 A,E Ac|F2 B,F Bd|G2 CG ce|A2 DA df|
e2 a2 c'2|fe dc BA|B2 e2 g2|a3 A c'b||

